X: 1
T: Kokopelli's Trip To Ireland
M: 6/8
L: 1/8
R: jig
K: Gmaj
|:ded BAG|ABA FED|EFG FGA|GBG AFD|
ded BAG|ABA FED|EFG FGA|1BGG G2B:|2BGG G2D||
|:GBd gfg|agf gdB|A^ce abg|fge d2B|ceg gec|
BAB g2B|1ABG EFG|FAF D2F:|2ABG FGA|BGF G3||
